assets/svg/mosaic.svg

<svg width="50px" height="50px" viewBox="0 0 50 50" version="1.1" xmlns="http://www.w3.org/2000/svg" xmlns:xlink="http://www.w3.org/1999/xlink">
    <defs>
        <path d="M50,24.7466924 C50,22.4400984 48.1293576,20.569456 45.8227637,20.569456 L41.6774262,20.569456 C39.3700728,20.569456 37.5001899,22.4400984 37.5001899,24.7466924 C37.5001899,27.0532863 39.3700728,28.9239287 41.6774262,28.9239287 L45.8227637,28.9239287 C48.1293576,28.9239287 50,27.0532863 50,24.7466924 M12.4998101,24.7466924 C12.4998101,22.4400984 10.6291677,20.569456 8.32257379,20.569456 L4.17723634,20.569456 C1.87064238,20.569456 0,22.4400984 0,24.7466924 C0,27.0532863 1.87064238,28.9239287 4.17723634,28.9239287 L8.32257379,28.9239287 C10.6291677,28.9239287 12.4998101,27.0532863 12.4998101,24.7466924 M31.2502848,24.7466924 C31.2502848,22.4400984 29.3796424,20.569456 27.0730485,20.569456 L22.9269515,20.569456 C20.6203576,20.569456 18.7497152,22.4400984 18.7497152,24.7466924 C18.7497152,27.0532863 20.6203576,28.9239287 22.9269515,28.9239287 L27.0730485,28.9239287 C29.3796424,28.9239287 31.2502848,27.0532863 31.2502848,24.7466924 M50,7.17723634 C50,4.87064238 48.1293576,3 45.8227637,3 L41.6774262,3 C39.3700728,3 37.5001899,4.87064238 37.5001899,7.17723634 C37.5001899,9.4838303 39.3700728,11.3544727 41.6774262,11.3544727 L45.8227637,11.3544727 C48.1293576,11.3544727 50,9.4838303 50,7.17723634 M12.4998101,7.17723634 C12.4998101,4.87064238 10.6291677,3 8.32257379,3 L4.17723634,3 C1.87064238,3 0,4.87064238 0,7.17723634 C0,9.4838303 1.87064238,11.3544727 4.17723634,11.3544727 L8.32257379,11.3544727 C10.6291677,11.3544727 12.4998101,9.4838303 12.4998101,7.17723634 M31.2502848,7.17723634 C31.2502848,4.87064238 29.3796424,3 27.0730485,3 L22.9269515,3 C20.6203576,3 18.7497152,4.87064238 18.7497152,7.17723634 C18.7497152,9.4838303 20.6203576,11.3544727 22.9269515,11.3544727 L27.0730485,11.3544727 C29.3796424,11.3544727 31.2502848,9.4838303 31.2502848,7.17723634 M50,42.3169079 C50,40.010314 48.1293576,38.1396716 45.8227637,38.1396716 L41.6774262,38.1396716 C39.3700728,38.1396716 37.5001899,40.010314 37.5001899,42.3169079 C37.5001899,44.6235019 39.3700728,46.4941443 41.6774262,46.4941443 L45.8227637,46.4941443 C48.1293576,46.4941443 50,44.6235019 50,42.3169079 M12.4998101,42.3169079 C12.4998101,40.010314 10.6291677,38.1396716 8.32257379,38.1396716 L4.17723634,38.1396716 C1.87064238,38.1396716 0,40.010314 0,42.3169079 C0,44.6235019 1.87064238,46.4941443 4.17723634,46.4941443 L8.32257379,46.4941443 C10.6291677,46.4941443 12.4998101,44.6235019 12.4998101,42.3169079 M31.2502848,42.3169079 C31.2502848,40.010314 29.3796424,38.1396716 27.0730485,38.1396716 L22.9269515,38.1396716 C20.6203576,38.1396716 18.7497152,40.010314 18.7497152,42.3169079 C18.7497152,44.6235019 20.6203576,46.4941443 22.9269515,46.4941443 L27.0730485,46.4941443 C29.3796424,46.4941443 31.2502848,44.6235019 31.2502848,42.3169079" id="path-1"></path>
    </defs>
</svg>

<svg width="50" height="50" xmlns="http://www.w3.org/2000/svg"><defs><path d="M50 24.747a4.178 4.178 0 00-4.177-4.178h-4.146a4.177 4.177 0 000 8.355h4.146A4.178 4.178 0 0050 24.747m-37.5 0a4.178 4.178 0 00-4.177-4.178H4.177a4.178 4.178 0 000 8.355h4.146a4.178 4.178 0 004.177-4.177m18.75 0a4.178 4.178 0 00-4.177-4.178h-4.146a4.178 4.178 0 000 8.355h4.146a4.178 4.178 0 004.177-4.177M50 7.177A4.178 4.178 0 0045.823 3h-4.146a4.177 4.177 0 000 8.354h4.146A4.178 4.178 0 0050 7.177m-37.5 0A4.178 4.178 0 008.323 3H4.177a4.178 4.178 0 000 8.354h4.146A4.178 4.178 0 0012.5 7.177m18.75 0A4.178 4.178 0 0027.073 3h-4.146a4.178 4.178 0 000 8.354h4.146a4.178 4.178 0 004.177-4.177M50 42.317a4.178 4.178 0 00-4.177-4.177h-4.146a4.177 4.177 0 000 8.354h4.146A4.178 4.178 0 0050 42.317m-37.5 0a4.178 4.178 0 00-4.177-4.177H4.177a4.178 4.178 0 000 8.354h4.146a4.178 4.178 0 004.177-4.177m18.75 0a4.178 4.178 0 00-4.177-4.177h-4.146a4.178 4.178 0 000 8.354h4.146a4.178 4.178 0 004.177-4.177" id="path-1"/></defs></svg>
